X: 33865
T: Red Admiral Butterfly, The
R: jig
M: 6/8
K: Eminor
M:12/8
|:B2G E2F GFE F3|B2G E2G F2B AGF|B2G E2F GFE F2B|B2A ABA d2B AFD:|
|:B2e edB e2f g2d|B2d g2e d2e dBA|B2e edB e2f g2a|b2a g2e d2e dBA:|
|:B3BAB dBA G2D|GDG BGB dge dBA|B3BAB dBd g2a|1 b2ag2ed2e dBA:|2 bc'b afd ge^c dBA||

